X: 1
T: The Famous Ballymote
C: Source: Jason Pollack via Will Wheeler
L: 1/8
M: 4/4
K: G
DE |"D" FDAD FAAB |"C" cA"(G)"BG "(A)" EFFE |"D" FDAD FAAB | "C" cAGE "(A)" ED "D" DE | 
"D" FDAD FAAB |"C" cA"(G)"BG "(A)" EFFE |"D" FDAD FAAB | "C" cAGE "(A)" ED "D" D2 |
"D" FDFA d2 ed | "C" cA"(G)"BG "(A)" EFFE | "D" FDFA d2 ed | "C"cAGE "(A)"ED "D"D2 | 
"D" FDFA d2 ed | "C" cA"(G)"BG "(A)" EFFE | "D" FDFA d2 ed | "C"cAGE "(A)"AD "D"D2 ||
